X:333
T:Music in the Glen
R:reel
D:Bothy Band: Old Hag, You've Killed Me
Z:id:hn-reel-333
M:C|
K:G
G2BG EGDC|B,DGB ~A3B|c2ec BcdB|cBAG FADF|
G2BG EGDC|B,DGB ~A3B|cdef ~g3e|1 dcBA GDEF:|2 dcBA ~G3A||
|:(3BAG dG eGdG|BGdB cA~A2|BGBd edef|gdBG AGEG|
BGBd edef|g2fg afdf|g2fg egdB|1 cABG AGEG:|2 cABG AGEF||
P:Variations:
|:G2BG EGDC|B,DGB ~A3B|~c3A BcBG|AcBA AGEF|
G2BG EGDC|B,DGB AGAB|cdef gage|1 dcBA GDEF:|2 dcBA ~G3A||
G2dG eGdB|G2dB cAFA|~G3d eBdf|gdBG AGEF|
G2Bd ~e3f|~g3b agef|g2fg egdB|BAAG AGEG|
BG (3Bcd eBdB|GBdB cA~A2|~B3d edef|gdBG AGEG|
~B3d edef|g2fg afdf|g2fg egdB|BABG AGEF||

